svgs/thin/arrow-right-to-arc.svg

<svg xmlns="http://www.w3.org/2000/svg" viewBox="0 0 512 512"><!--! Font Awesome Pro 6.4.0 by @fontawesome - https://fontawesome.com License - https://fontawesome.com/license (Commercial License) Copyright 2023 Fonticons, Inc. --><path d="M496 256C496 123.5 388.5 16 256 16c-4.4 0-8-3.6-8-8s3.6-8 8-8C397.4 0 512 114.6 512 256s-114.6 256-256 256c-4.4 0-8-3.6-8-8s3.6-8 8-8c132.5 0 240-107.5 240-240zM197.2 121.9l152 128c1.8 1.5 2.8 3.8 2.8 6.1s-1 4.6-2.8 6.1l-152 128c-3.4 2.8-8.4 2.4-11.3-1s-2.4-8.4 1-11.3L322.1 264H8c-4.4 0-8-3.6-8-8s3.6-8 8-8H322.1L186.8 134.1c-3.4-2.8-3.8-7.9-1-11.3s7.9-3.8 11.3-1z"/></svg>

<svg xmlns="http://www.w3.org/2000/svg" viewBox="0 0 512 512"><!--! Font Awesome Pro 6.3.0 by @fontawesome - https://fontawesome.com License - https://fontawesome.com/license (Commercial License) Copyright 2023 Fonticons, Inc. --><path d="M496 256C496 123.5 388.5 16 256 16C251.6 16 248 12.42 248 8C248 3.582 251.6 0 256 0C397.4 0 512 114.6 512 256C512 397.4 397.4 512 256 512C251.6 512 248 508.4 248 504C248 499.6 251.6 496 256 496C388.5 496 496 388.5 496 256zM349.2 249.9C350.1 251.4 352 253.6 352 256C352 258.4 350.1 260.6 349.2 262.1L197.2 390.1C193.8 392.1 188.7 392.5 185.9 389.2C183 385.8 183.5 380.7 186.8 377.9L322.1 264H8C3.582 264 0 260.4 0 256C0 251.6 3.582 248 8 248H322.1L186.8 134.1C183.5 131.3 183 126.2 185.9 122.8C188.7 119.5 193.8 119 197.2 121.9L349.2 249.9z"/></svg>
